X:1
T:The Wild Irish Boy
M:3/4
L:1/4
K:F
 F/2F/2G/2| A G F| D C C/2C/2| D F G| F3/2 F/2 F| A B| c| d/2 c3/2 A|\
 B c d| c2 F| A B c| d c A| B c d| c2F/2-G/2| A F F| D CD/2-F/2| G F F|\
 F3-| F3/2||

